X:1
T:F Major              Jacob French, 1789
T:Isaac Watts, 1719 (Psalm 132, Part 2)         86. 86. (C. M.)                                     
T:Merrifield
T:Transcribed from  The New American Melody, 1789.
%%score [ 1 2 3 4 ]
L:1/8
Q:1/4=90
M:2/4
K:F
V:1 treble nm="Tr." snm="Tr."
V:2 treble nm="C." snm="C."
V:3 treble-8 nm="T." snm="T."
V:4 bass nm="B." snm="B."
V:1
 A2 | cc dd | c2 c2 | c4 | A2 Ad | cA BA | G4 | A2 Ac | cc cB | Ad cc | fc dc | cc c f/e/ | d2 c2 | %13
w: 1.~No|sleep nor slum- ber|to his|eyes|Good Da- vid|would * af- *|ford,|Till he had|found be- low the|skies, Till he had|found be- low the|skies A dwel- ling *|for the|
 c4 |: z2 c2 | f4 | f2 cc | d2 c2 | c4 | c2 cc | c2 =B2 | c3 z | f4 | c2 c2 | d4- | d2 f2 | d3 d | %27
w: Lord.|A-|rise,|O King of|grace, a-|rise,|And en- ter|to thy|rest!|Lo!|thy church|waits~|_ with|long- ing|
 c4 | A2 cA | d2 c2 | c4 :| %31
w: eyes|Thus to be|owned and|blessed.|
V:2
 F2 | FF FG | F2 E2 | F4 | F2 AA | AF GF | E4 | F2 FG | AG AG | FF FF | FF G A/F/ | GE FA | %12
w: 2.~En-|ter with all thy|glo- rious|train,|Thy Spi- rit|and * thy *|word;|All that the|ark did once con-|tain, All that the|ark did once con- *|tain Could no such|
 GF [EG]2 | [FA]4 |: z2 F2 | (A>G F2) | A2 AA | GF G2 | A4 | A2 GF | A2 G2 | G3 z | A4 | F2 F2 | %24
w: grace * af-|ford.|Here,|migh- * *|ty God, ac-|cept * our|vows,|Here let thy|praise be|spread;|Bless|the pro-|
 G4- | G2 A2 | F2 G>F | E4 | F2 EF | GF [EG]2 | [FA]4 :| %31
w: vi-|* sions|of thy *|house,|And fill thy|poor * with|bread.|
V:3
 c2 | AF dB | A2 G2 | F4 | c2 cf | ec d2 | c4 | c2 de | fc fd | cB AF | dA BA | GG Ac | BA GE | %13
w: 3.~Here|let the Son of|Da- vid|reign,|Let God's A-|noin- * ted|shine;|Jus- tice and|truth his court main-|tain, Jus- tice and|truth his court main-|tain With love and|power * di- *|
 F4 |: z2 F2 | (c2 d2) | c2 fe | d2 e2 | f4 | f2 gc | fe d2 | c3 z | c4 | A2 F2 | B4- | B2 c2 | %26
w: vine.|Here|let~ _|him hold a|las- ting|throne;|And as his|king- * dom|grows,|Fresh|ho- nors|shall~|_ a-|
 d>c B>A | G4 | c2 AF | BA G2 | F4 :| %31
w: dorn * his *|crown,|And shame con-|found * his|foes.|
V:4
 [F,,F,]2 | [F,,F,][C,A,] [D,B,][G,,G,] | [C,C]2 C,2 | [F,,F,]4 | [F,,F,]2 D,D, | %5
 A,2 [G,,G,][F,,F,] | C,4 | F,2 D,C, | [F,,F,][E,,E,] [F,,F,][G,,G,] | %9
 [A,,A,][B,,B,] [C,C][A,,A,] | [B,,B,][A,,A,] [G,,G,][F,,F,] | C,C, [F,,F,][F,,F,] | B,,2 C,2 | %13
 F,,4 |: z2 [F,,F,]2 | ([F,,F,]2 [B,,B,]2) | [A,,A,]>[G,,G,] [F,,F,][A,,A,] | [B,,B,]2 [C,C]2 | %18
 [F,,F,]4 | [F,,F,]2 [C,C][A,,A,] | [F,,F,]2 [G,,G,]2 | C,3 z | [F,,F,]4 | [F,,F,]2 [A,,A,]2 | %24
 [G,,G,]4- | [G,,G,]2 [F,,F,]2 | [B,,B,]>[A,,A,] [G,,G,]>[F,,F,] | C,4 | F,2 C,D, | B,,2 C,2 | %30
 F,,4 :| %31

